X: 39656
T: Tempus Fugit
R: waltz
M: 3/4
K: Bminor
f3d BF|Bd c2-cd|B3c dF|G^A ce gb|f3d BF|B2 dB ed|f2d2B2|A3G FG|
f3d BF|Bd c3d|B^A Bd- dG|GG Gc ga|f3d BF|B2dB ed|f2 d2 B2|AF GB ed|
d3d cB|d3d cB|c3d c=F|^F^A ce dc|B2dB dB|B2dB dB|AF Ac AF|cF Ac AF|
d3d cB|d3d cB|c3dc2|F^A ce dc|B2dB eB|dB BB dB|cA AA cA|dB BA B/c/d|
fd BF Bd|fd BF Bd|ae cA ce|ag gf fe|fd BF Bd|fd BF Bd|e2 c2 A2-|AB Ae fg|
fd BF Bd|fd BF Bd|ae cA ce|ag gf fe|fd BF Bd|fd BF Bd|e2c2A2|G3G FE|
D2F2c2|B3AG2|FB DF GA|e3d cA|G2B2f2|d3B G2|FB D/E/D GA|e3d cA|
d2f2c'2|b3a ag|fB df ga|e3d cA|g2b2f'2|d'4bg|fB d/e/d ga|e3d e/f/g||

